public/svg/ruler.svg

<svg xmlns="http://www.w3.org/2000/svg" width="56" height="56" viewBox="0 0 56 56" fill="none">
<path d="M11.6663 9.3335H44.333C44.9518 9.3335 45.5453 9.57933 45.9829 10.0169C46.4205 10.4545 46.6663 11.048 46.6663 11.6668V23.3335C46.6663 23.9523 46.4205 24.5458 45.9829 24.9834C45.5453 25.421 44.9518 25.6668 44.333 25.6668H27.9997C27.3808 25.6668 26.7873 25.9127 26.3498 26.3502C25.9122 26.7878 25.6663 27.3813 25.6663 28.0002V44.3335C25.6663 44.9523 25.4205 45.5458 24.9829 45.9834C24.5453 46.421 23.9518 46.6668 23.333 46.6668H11.6663C11.0475 46.6668 10.454 46.421 10.0164 45.9834C9.57884 45.5458 9.33301 44.9523 9.33301 44.3335V11.6668C9.33301 11.048 9.57884 10.4545 10.0164 10.0169C10.454 9.57933 11.0475 9.3335 11.6663 9.3335" stroke="#1B5BF7" stroke-width="3.5" stroke-linecap="round" stroke-linejoin="round"/>
<path d="M9.33301 18.6665H13.9997" stroke="#1B5BF7" stroke-width="3.5" stroke-linecap="round" stroke-linejoin="round"/>
<path d="M9.33301 28H16.333" stroke="#1B5BF7" stroke-width="3.5" stroke-linecap="round" stroke-linejoin="round"/>
<path d="M9.33301 37.3335H13.9997" stroke="#1B5BF7" stroke-width="3.5" stroke-linecap="round" stroke-linejoin="round"/>
<path d="M18.667 9.3335V14.0002" stroke="#1B5BF7" stroke-width="3.5" stroke-linecap="round" stroke-linejoin="round"/>
<path d="M28 9.3335V16.3335" stroke="#1B5BF7" stroke-width="3.5" stroke-linecap="round" stroke-linejoin="round"/>
<path d="M37.333 9.3335V14.0002" stroke="#1B5BF7" stroke-width="3.5" stroke-linecap="round" stroke-linejoin="round"/>
</svg>

<svg xmlns="http://www.w3.org/2000/svg" width="56" height="56" fill="none" stroke="#1b5bf7" stroke-width="3.5" stroke-linecap="round" stroke-linejoin="round" xmlns:v="https://vecta.io/nano"><path d="M11.666 9.334h32.667c.619 0 1.212.246 1.65.683s.683 1.031.683 1.65v11.667c0 .619-.246 1.212-.683 1.65s-1.031.683-1.65.683H28c-.619 0-1.212.246-1.65.683s-.683 1.031-.683 1.65v16.333c0 .619-.246 1.212-.683 1.65s-1.031.683-1.65.683H11.666c-.619 0-1.212-.246-1.65-.683s-.683-1.031-.683-1.65V11.667c0-.619.246-1.212.683-1.65s1.031-.683 1.65-.683"/><path d="M9.333 18.667H14M9.333 28h7m-7 9.334H14m4.667-28V14M28 9.334v7m9.333-7V14"/></svg>
